assets/logo.svg

<?xml version="1.0" encoding="UTF-8"?>
<svg width="24px" height="24px" viewBox="0 0 24 24" version="1.1" xmlns="http://www.w3.org/2000/svg" xmlns:xlink="http://www.w3.org/1999/xlink">
    <!-- Generator: Sketch 54.1 (76490) - https://sketchapp.com -->
    <title>logo</title>
    <desc>Created with Sketch.</desc>
    <defs>
        <linearGradient x1="84.2032085%" y1="15.7750435%" x2="14.5836794%" y2="83.897747%" id="linearGradient-1">
            <stop stop-color="#0000B3" offset="0%"></stop>
            <stop stop-color="#0000FF" offset="100%"></stop>
        </linearGradient>
    </defs>
    <g id="Landing-podcast" stroke="none" stroke-width="1" fill="none" fill-rule="evenodd">
        <g id="UI-Kit" transform="translate(-465.000000, -650.000000)">
            <g id="mobileNav-bar_expanded" transform="translate(449.000000, 640.000000)">
                <g id="mobileNav-bar_hero">
                    <g id="logo" transform="translate(16.000000, 10.000000)">
                        <circle id="Oval-Copy" fill="url(#linearGradient-1)" cx="12" cy="12" r="12"></circle>
                        <path d="M6.66666667,8 L7.82933333,8 L7.82933333,11.264 L7.88266667,11.264 C8.00355616,10.9297761 8.20088752,10.6720009 8.47466667,10.4906667 C8.74844581,10.3093324 9.07022037,10.2186667 9.44,10.2186667 C10.1440035,10.2186667 10.6879981,10.4728863 11.072,10.9813333 C11.4560019,11.4897803 11.648,12.2026621 11.648,13.12 C11.648,14.0373379 11.4560019,14.7502197 11.072,15.2586667 C10.6879981,15.7671137 10.1440035,16.0213333 9.44,16.0213333 C9.07022037,16.0213333 8.74844581,15.9288898 8.47466667,15.744 C8.20088752,15.5591102 8.00355616,15.3031127 7.88266667,14.976 L7.82933333,14.976 L7.82933333,15.8933333 L6.66666667,15.8933333 L6.66666667,8 Z M9.088,15.0186667 C9.49333536,15.0186667 9.81688768,14.8888902 10.0586667,14.6293333 C10.3004457,14.3697765 10.4213333,14.0266688 10.4213333,13.6 L10.4213333,12.64 C10.4213333,12.2133312 10.3004457,11.8702235 10.0586667,11.6106667 C9.81688768,11.3511098 9.49333536,11.2213333 9.088,11.2213333 C8.73244267,11.2213333 8.43377899,11.3084436 8.192,11.4826667 C7.95022101,11.6568898 7.82933333,11.8862208 7.82933333,12.1706667 L7.82933333,14.0693333 C7.82933333,14.3537792 7.95022101,14.5831102 8.192,14.7573333 C8.43377899,14.9315564 8.73244267,15.0186667 9.088,15.0186667 Z M16.4693333,14.976 L16.416,14.976 C16.2951105,15.3031127 16.0977791,15.5591102 15.824,15.744 C15.5502209,15.9288898 15.2284463,16.0213333 14.8586667,16.0213333 C14.1546631,16.0213333 13.6106686,15.7671137 13.2266667,15.2586667 C12.8426647,14.7502197 12.6506667,14.0373379 12.6506667,13.12 C12.6506667,12.2026621 12.8426647,11.4897803 13.2266667,10.9813333 C13.6106686,10.4728863 14.1546631,10.2186667 14.8586667,10.2186667 C15.2284463,10.2186667 15.5502209,10.3093324 15.824,10.4906667 C16.0977791,10.6720009 16.2951105,10.9297761 16.416,11.264 L16.4693333,11.264 L16.4693333,8 L17.632,8 L17.632,15.8933333 L16.4693333,15.8933333 L16.4693333,14.976 Z M15.2106667,15.0186667 C15.566224,15.0186667 15.8648877,14.9315564 16.1066667,14.7573333 C16.3484457,14.5831102 16.4693333,14.3537792 16.4693333,14.0693333 L16.4693333,12.1706667 C16.4693333,11.8862208 16.3484457,11.6568898 16.1066667,11.4826667 C15.8648877,11.3084436 15.566224,11.2213333 15.2106667,11.2213333 C14.8053313,11.2213333 14.481779,11.3511098 14.24,11.6106667 C13.998221,11.8702235 13.8773333,12.2133312 13.8773333,12.64 L13.8773333,13.6 C13.8773333,14.0266688 13.998221,14.3697765 14.24,14.6293333 C14.481779,14.8888902 14.8053313,15.0186667 15.2106667,15.0186667 Z" id="bd" fill="#FFFFFF" fill-rule="nonzero"></path>
                    </g>
                </g>
            </g>
        </g>
    </g>
</svg>

<svg xmlns="http://www.w3.org/2000/svg" viewBox="0 0 24 24">
  <defs>
    <linearGradient id="a" x1="84.203%" x2="14.584%" y1="15.775%" y2="83.898%">
      <stop offset="0%" stop-color="#0000B3"/>
      <stop offset="100%" stop-color="#00F"/>
    </linearGradient>
  </defs>
  <g fill="none" fill-rule="evenodd">
    <circle cx="12" cy="12" r="12" fill="url(#a)"/>
    <path fill="#FFF" fill-rule="nonzero" d="M6.667 8h1.162v3.264h.054c.12-.334.318-.592.592-.773.273-.182.595-.272.965-.272.704 0 1.248.254 1.632.762.384.509.576 1.222.576 2.139 0 .917-.192 1.63-.576 2.139-.384.508-.928.762-1.632.762-.37 0-.692-.092-.965-.277a1.546 1.546 0 01-.592-.768h-.054v.917H6.667V8zm2.421 7.019c.405 0 .729-.13.97-.39.242-.26.363-.602.363-1.029v-.96c0-.427-.12-.77-.362-1.03-.242-.259-.566-.389-.971-.389-.356 0-.654.087-.896.262a.81.81 0 00-.363.688v1.898c0 .285.121.514.363.688.242.175.54.262.896.262zm7.381-.043h-.053c-.12.327-.318.583-.592.768a1.683 1.683 0 01-.965.277c-.704 0-1.248-.254-1.632-.762-.384-.509-.576-1.222-.576-2.139 0-.917.192-1.63.576-2.139.384-.508.928-.762 1.632-.762.37 0 .691.09.965.272.274.181.471.439.592.773h.053V8h1.163v7.893h-1.163v-.917zm-1.258.043c.355 0 .654-.087.896-.262a.81.81 0 00.362-.688v-1.898a.81.81 0 00-.362-.688c-.242-.175-.54-.262-.896-.262-.406 0-.73.13-.971.39-.242.26-.363.602-.363 1.029v.96c0 .427.121.77.363 1.03.242.259.565.389.97.389z"/>
  </g>
</svg>
